X:1
T: Barrack Hill
N:
C:
S:
A:
O:
R:
M:6/8
K:Am
I:speed 165
%W: A1
% voice 1 (1 lines, 30 notes)
K:Am
M:6/8
L:1/16
e4 A2 A4 B2 e4 d2 B4 d2 e4 A2 A4 B2 G4 A2 B4 d2 |e4 A2 A4 B2 e4 d2 B4 d2 e4 d2 g4 B2 A6 A6 |
%W: A2
% voice 1 (1 lines, 30 notes)
e4 A2 A4 B2 e4 d2 B4 d2 e4 A2 A4 B2 G4 A2 B4 d2 |e4 A2 A4 B2 e4 d2 B4 d2 e4 d2 g4 B2 A6 A6 |
%W: B1
% voice 1 (1 lines, 32 notes)
e4 d2 e2 f2 g2 a4 b2 g4 e2 d4 B2 d4 e2 d4 B2 d4 g2 |e4 d2 e2 f2 g2 a4 b2 g4 e2 d4 B2 g4 B2 A6 A6 |
%W: B2
% voice 1 (1 lines, 32 notes)
e4 d2 e2 f2 g2 a4 b2 g4 e2 d4 B2 d4 e2 d4 B2 d4 g2 |e4 d2 e2 f2 g2 a4 b2 g4 e2 d4 B2 g4 B2 A6 A6 ||
